X: 18697
T: I'm The Boy For Bewitching Them
R: slip jig
M: 9/8
K: Gmajor
|:DE|GAG Gge dBG|ABA ABd e3|GAB gfe dcB|ABA BAG E2:|
|:d|gdg g/a/bg fed|edB (gab) a3|bag g/a/bg fed|1 e/f/ge dcA A2:|
|:GGG Gge dBG|AAA ABc e3|GAB ga/g/f/e/ dcB|ABA BAG E2:|

